packages/kaspersky-hexa-ui-icons/src/iconsSVGs/24/FacebookColor.svg

<svg width="24" height="24" viewBox="0 0 24 24" fill="none" xmlns="http://www.w3.org/2000/svg">
<path d="M3 5.25C3 4.00736 4.00736 3 5.25 3H18.75C19.9926 3 21 4.00736 21 5.25V18.75C21 19.9926 19.9926 21 18.75 21H5.25C4.00736 21 3 19.9926 3 18.75V5.25Z" fill="#494DB0"/>
<path d="M16.249 6.14483C16.3732 6.14483 16.474 6.24557 16.474 6.36983V8.66385C16.474 8.78811 16.3732 8.88885 16.249 8.88885H14.6299C14.1329 8.88885 13.7299 9.29179 13.7299 9.78885V11.7864H16.117C16.2515 11.7864 16.3559 11.9036 16.3406 12.0371L16.077 14.3311C16.064 14.4447 15.9678 14.5305 15.8535 14.5305H13.7299V21H10.9859V14.5305H8.95761C8.83335 14.5305 8.73261 14.4297 8.73261 14.3055V12.0114C8.73261 11.8872 8.83335 11.7864 8.95761 11.7864H10.9859V9.51982C10.9859 7.65587 12.4969 6.14483 14.3609 6.14483H16.249Z" fill="white"/>
</svg>

<svg xmlns="http://www.w3.org/2000/svg" width="24" height="24" fill="none" viewBox="0 0 24 24"><path fill="#494db0" d="M3 5.25C3 4.0074 4.0074 3 5.25 3h13.5C19.9926 3 21 4.0074 21 5.25v13.5c0 1.2426-1.0074 2.25-2.25 2.25H5.25C4.0074 21 3 19.9926 3 18.75z"/><path fill="#fff" d="M16.249 6.1448a.225.225 0 0 1 .225.225v2.294a.225.225 0 0 1-.225.225h-1.6191a.9.9 0 0 0-.9.9v1.9976h2.3871a.225.225 0 0 1 .2236.2507l-.2636 2.294a.225.225 0 0 1-.2235.1994h-2.1236V21h-2.744v-6.4695H8.9576a.225.225 0 0 1-.225-.225v-2.2941a.225.225 0 0 1 .225-.225h2.0283V9.5198c0-1.864 1.511-3.375 3.375-3.375z"/></svg>
